docs/assets/img/rotation.svg

<?xml version="1.0" encoding="UTF-8"?>
<svg width="23px" height="20px" viewBox="0 0 23 20" version="1.1" xmlns="http://www.w3.org/2000/svg" xmlns:xlink="http://www.w3.org/1999/xlink">
    <title>rotation</title>
    <g id="Welcome" stroke="none" stroke-width="1" fill="none" fill-rule="evenodd">
        <g id="lpw-featured-development-landing-page-2.0" transform="translate(-227.000000, -548.000000)" fill="#FFFFFF" fill-rule="nonzero">
            <g id="Main-12" transform="translate(30.000000, 276.000000)">
                <g id="rotation" transform="translate(197.000000, 272.000000)">
                    <path d="M11.5,5.71428571 C11.4415417,5.71428571 11.3830833,5.70380952 11.3275,5.68285714 L5.09833333,3.30190476 C4.913375,3.23142857 4.79166667,3.05428571 4.79166667,2.85714286 C4.79166667,2.66 4.913375,2.48285714 5.09833333,2.41238095 L11.3275,0.0314285714 C11.4386667,-0.0104761905 11.560375,-0.0104761905 11.6715417,0.0314285714 L17.9007083,2.41238095 C18.086625,2.48285714 18.2083333,2.66 18.2083333,2.85714286 C18.2083333,3.05428571 18.086625,3.23142857 17.9016667,3.30190476 L11.6725,5.68285714 C11.6169167,5.70380952 11.5584583,5.71428571 11.5,5.71428571 L11.5,5.71428571 Z M6.60579167,2.85714286 L11.5,4.72761905 L16.3942083,2.85714286 L11.5,0.986666667 L6.60579167,2.85714286 Z" id="Shape"></path>
                    <path d="M11.5,13.3333333 C11.4415417,13.3333333 11.3830833,13.3228571 11.3275,13.3019048 L5.09833333,10.9209524 C4.913375,10.8504762 4.79166667,10.6733333 4.79166667,10.4761905 L4.79166667,2.85714286 C4.79166667,2.59428571 5.00633333,2.38095238 5.27083333,2.38095238 C5.53533333,2.38095238 5.75,2.59428571 5.75,2.85714286 L5.75,10.1495238 L11.5,12.347619 L17.25,10.1495238 L17.25,2.85714286 C17.25,2.59428571 17.4646667,2.38095238 17.7291667,2.38095238 C17.9936667,2.38095238 18.2083333,2.59428571 18.2083333,2.85714286 L18.2083333,10.4761905 C18.2083333,10.6733333 18.086625,10.8504762 17.9016667,10.9209524 L11.6725,13.3019048 C11.6169167,13.3228571 11.5584583,13.3333333 11.5,13.3333333 Z" id="Path"></path>
                    <path d="M11.5,13.3333333 C11.2355,13.3333333 11.0208333,13.12 11.0208333,12.8571429 L11.0208333,5.23809524 C11.0208333,4.9752381 11.2355,4.76190476 11.5,4.76190476 C11.7645,4.76190476 11.9791667,4.9752381 11.9791667,5.23809524 L11.9791667,12.8571429 C11.9791667,13.12 11.7645,13.3333333 11.5,13.3333333 Z" id="Path"></path>
                    <path d="M10.0625,20 C9.91683333,20 9.77308333,19.9342857 9.67916667,19.8095238 C9.52008333,19.5990476 9.56320833,19.3009524 9.775,19.1428571 L11.1799167,18.0952381 L9.775,17.047619 C9.56320833,16.8895238 9.52008333,16.5914286 9.67916667,16.3809524 C9.83825,16.1704762 10.1382083,16.1285714 10.35,16.2857143 L12.2666667,17.7142857 C12.3874167,17.8038095 12.4583333,17.9457143 12.4583333,18.0952381 C12.4583333,18.2447619 12.3874167,18.3866667 12.2666667,18.4761905 L10.35,19.9047619 C10.26375,19.9685714 10.163125,20 10.0625,20 L10.0625,20 Z" id="Path"></path>
                    <path d="M11.5,18.5714286 C10.051,18.5714286 8.679625,18.5028571 7.42325,18.3685714 C5.68483333,18.1942857 0,17.4533333 0,15.2380952 C0,14.3342857 0.938208333,13.5790476 2.78683333,12.9942857 C3.090625,12.9009524 3.41645833,13.1361905 3.41645833,13.4485714 C3.41645833,13.6790476 3.25545833,13.8714286 3.03695833,13.9152381 C1.503625,14.4057143 0.958333333,14.9342857 0.958333333,15.2380952 C0.958333333,15.872381 2.99479167,16.967619 7.52291667,17.4209524 C8.74766667,17.552381 10.0845417,17.6190476 11.5,17.6190476 C11.7645,17.6190476 11.9791667,17.832381 11.9791667,18.0952381 C11.9791667,18.3580952 11.7645,18.5714286 11.5,18.5714286 Z" id="Path"></path>
                    <path d="M14.8445833,18.4285714 C14.5973333,18.4285714 14.3874583,18.24 14.3673333,17.9914286 C14.34625,17.7295238 14.5427083,17.4990476 14.80625,17.4780952 C19.7416667,17.0771429 22.0416667,15.9047619 22.0416667,15.2380952 C22.0416667,14.9314286 21.4867917,14.3971429 19.9218333,13.9019048 C19.6697917,13.8219048 19.5308333,13.5542857 19.610375,13.3038095 C19.690875,13.0533333 19.9592083,12.9152381 20.2122083,12.9942857 C22.0617917,13.5790476 23,14.3342857 23,15.2380952 C23,17.5857143 16.7880833,18.272381 14.883875,18.427619 C14.8704583,18.4285714 14.8570417,18.4285714 14.8445833,18.4285714 Z" id="Path"></path>
                </g>
            </g>
        </g>
    </g>
</svg>

<svg width="23" height="20" xmlns="http://www.w3.org/2000/svg"><g fill="#FFF"><path d="M11.5 5.714a.489.489 0 01-.172-.031l-6.23-2.381a.476.476 0 010-.89l6.23-2.38a.486.486 0 01.344 0l6.229 2.38a.476.476 0 010 .89l-6.229 2.38a.489.489 0 01-.172.032zM6.606 2.857l4.894 1.87 4.894-1.87L11.5.987l-4.894 1.87z"/><path d="M11.5 13.333a.489.489 0 01-.172-.031l-6.23-2.381a.476.476 0 01-.306-.445V2.857c0-.263.214-.476.479-.476.264 0 .479.213.479.476v7.293l5.75 2.198 5.75-2.198V2.857c0-.263.215-.476.48-.476.264 0 .478.213.478.476v7.62a.476.476 0 01-.306.444l-6.23 2.38a.489.489 0 01-.172.032z"/><path d="M11.5 13.333a.478.478 0 01-.48-.476V5.238c0-.263.216-.476.48-.476s.48.213.48.476v7.62a.478.478 0 01-.48.475zM10.063 20a.478.478 0 01-.384-.19.474.474 0 01.096-.667l1.405-1.048-1.405-1.047a.474.474 0 01-.096-.667.482.482 0 01.671-.095l1.917 1.428a.475.475 0 010 .762l-1.917 1.429a.482.482 0 01-.287.095z"/><path d="M11.5 18.571c-1.449 0-2.82-.068-4.077-.202C5.685 18.194 0 17.453 0 15.239c0-.905.938-1.66 2.787-2.245.304-.093.63.142.63.455 0 .23-.162.422-.38.466-1.533.49-2.079 1.02-2.079 1.323 0 .634 2.037 1.73 6.565 2.183 1.225.131 2.562.198 3.977.198.264 0 .48.213.48.476a.478.478 0 01-.48.476zm3.345-.142a.478.478 0 01-.478-.438.478.478 0 01.44-.513c4.935-.4 7.235-1.573 7.235-2.24 0-.307-.555-.84-2.12-1.336a.476.476 0 11.29-.908c1.85.585 2.788 1.34 2.788 2.244 0 2.348-6.212 3.034-8.116 3.19h-.04z"/></g></svg>
